X: 149121
T: PETER BAILIE'S WIFE
Q: "Lively."
%R: air, jig
B: James Kerr "Merry Melodies" v.1 p.49 s.1 #21
Z: 2016 John Chambers <jc:trillian.mit.edu>
M: 6/8
L: 1/8
K: A
uE |\
E>FE ECE | E>FA A2uf | e>dc B>cd | c>BA F>GA |\
E>FE ECE | E>FA A2uf | e>dc BAB | cAA A2 :|
vc/d/ |\
e>fe ece | vf2vg a2uf | e>dc B>cd | c>BA uF2uE |\
e>fe ece | f2g a2f | e>dc B>cd | cAA A2
c/d/ |\
e>fe ece | f2g a2f | e>dc Bcd | c>BA F2E |\
Ace def | cde fga | e>dc BAB | cAA A2 |]

%%sep 1 1 500
%%sep 1 1 500

